X:2500
T:Canción de Ronda (CT 413)
C:Trad.
Z:Cancioneru de Torner 413
M:3/8
L:1/8
Q:1/8=120
W:- Cuando paso por el puente,
W:siempre te encuentro lavando:
W:la hermosura de tu cara,
W:el agua la va llevando.
W:- Si me quieres,
W:dímelo;
W:si me quieres
W:igual haré yo.
K:Cm
G|c=Bc|f2e|(3d/2e/2d/2 c2-|c2d|fec|
d2B|(3A/B/A/ G2-|GzG|c=Bc|f2e|(3d/e/d/ c2-|
c2d|fec|d2B|(3A/B/A/ G2-|Gcd|B2A|
c2B|G3-|Gcd|BAB|cBA|G3-|Gz2||


